!! 00048] TT[KA
!! NN
!!!OTL: Li you song
!!!ARE: Asia, China,ÿZhejiang, Wenzhou
!! Ethnic Group: Han
!! III, 614
!!!SCT: C0359
!!!YEM: Copyright 1995, estate of Helmut Schaffrath.
**kern
*ICvox
*Ivox
!! Mixed meters:  3/8; 2/4
*M2/4
*k[f#c#g#]
*A:
{8aa
8ff#
8aa
=1
8aa
8ff#
8aa
=2
8aa
8ff#
8aa
=3
8aa
8ff#
8aa
=4
8aa
8ff#
8ee
=5
2cc#}
=6
{8cc#
8ee
8ff#
8aa
=7
8aa
8ee
4ff#
=8
2cc#}
=9
{8ee
8ff#
8ee
8ff#
=10
8ee
8ee
8ff#
8ff#
=11
8ee
8ff#
8ee
8ff#
=12
8ee
8ee
8ff#
8ff#
=13
8ee
8ff#
8ee
8ff#}
=14
{8aa
16ff#
16aa
[4bb
=15
4bb]
4ff#
=16
2ee
=17
8ee
8r
4r}
==
!!!AGN: Shange. Xin minge
!! Anfangs prosaische Elemente. Kritisiert das Verbot der freien
!!    Ehe der Tochter.
!!    Wenig Verzierungen.
!!!ONB: ESAC (Essen Associative Code) Database: CHINA
!!!AMT: irregular
!!!AIN: vox
!!!EED: Helmut Schaffrath
!!!EEV: 1.0
*-
!!!ONB: Tied note syntax fixed by Craig Sapp, 2004/05/03/
